X:83
T: Die Kindsmoerderin
N: A0094
O: Europa, Mitteleuropa, Deutschland, Schwaben
N: Aus Schwaben. Aufgezeichnet vom Consistorialrath Horstig und zuerst
N: mit Melodie mitgetheilt in Friedr. Reichardt, Berliner musikal.
N: Zeitung II. Jahrg. Berlin 1806 S. 40 und Beilage 10.
R: Romanze, Ballade, Lied
M: 4/4
L: 1/4
K: F
F | _AFcc | c2_AA | G2GF | G2z
G | G_ABc | _d2cB | _A2GG | F2z

@@@ Tune index: 83
